X:35
T:polska
R:polska J
Z:id:hn-jp-35
M:3/4
L:1/16
K:A
A2zB c4 c3d/c/ | BABc d2cd B4 | ABcd e2a2 f2ed | cBAG A2AE C2E2 |
A2zB c4 c3d/c/ | BABc d2cd B4 | ABcd e2a2 f2ed | cBAG A6E2 :|
|: ABcd efec efec | A2de fafd fafd | ABcd efec efec | A2Bc d2B2 G2B2 |
A3c efec efec | A2de fafd fafd | ABcd e2a2 f2ed | cBAG A6E2 :|
